X:64
T:Tater Rolls
S:Porterbelly Stringband, self-titled CD
Z:abc-transcription Josh Larios <hades@elsewhere.org>, 2014.06.17
Z:abc-edited Josh Larios <hades@elsewhere.org>, 2014.07.01
M:2/4
L:1/8
K:D
|:"D"fa- af | ed "G"B>A | "D"Bb af | "A"ed "D"f>e |
"D"fa- af | ed "G"B>d | BA F/E/D/F/ | "A"ED"D"D2 :|
|: "D"FF F/E/D | EF"G" G>D | "D"FF F/E/D/F/ | "A"ED "D"D>E :|

